localPackages/DesignSystem/Sources/DesignSystem/Resources/Assets.xcassets/IconSet/ic-lightbulb.imageset/ic-lightbulb.svg

<svg width="24" height="24" viewBox="0 0 24 24" fill="none" xmlns="http://www.w3.org/2000/svg">
<g id="ic-lightbulb">
<path id="Icon" fill-rule="evenodd" clip-rule="evenodd" d="M16.5369 12.9266C17.4494 11.8734 18 10.5029 18 9C18 5.68629 15.3137 3 12 3C8.68629 3 6 5.68629 6 9C6 10.5029 6.5506 11.8734 7.46309 12.9266C8.25798 13.844 9.1527 15.0517 9.54602 16.5H14.454C14.8473 15.0517 15.742 13.844 16.5369 12.9266ZM8.25 18C8.25 16.4507 7.34393 15.0797 6.32942 13.9088C5.18966 12.5933 4.5 10.8772 4.5 9C4.5 4.85786 7.85786 1.5 12 1.5C16.1421 1.5 19.5 4.85786 19.5 9C19.5 10.8772 18.8103 12.5933 17.6706 13.9088C16.6561 15.0797 15.75 16.4507 15.75 18V18.75C15.75 19.9827 15.2955 20.9458 14.5558 21.5916C13.8325 22.2231 12.8965 22.5 12 22.5C11.1035 22.5 10.1675 22.2231 9.44423 21.5916C8.70452 20.9458 8.25 19.9827 8.25 18.75V18ZM9.75 18.75V18H14.25V18.75C14.25 19.5884 13.9545 20.1253 13.5692 20.4617C13.1675 20.8124 12.6035 21 12 21C11.3965 21 10.8325 20.8124 10.4308 20.4617C10.0455 20.1253 9.75 19.5884 9.75 18.75ZM9 8.25C9 7.00736 10.0074 6 11.25 6C11.6642 6 12 5.66421 12 5.25C12 4.83579 11.6642 4.5 11.25 4.5C9.17893 4.5 7.5 6.17893 7.5 8.25C7.5 8.66421 7.83579 9 8.25 9C8.66421 9 9 8.66421 9 8.25Z" fill="#0F0F0F"/>
</g>
</svg>

<svg xmlns="http://www.w3.org/2000/svg" width="24" height="24" viewBox="0 0 24 24">
  <g class="ic-lightbulb">
    <path fill-rule="evenodd" d="M16.537 12.927a6 6 0 1 0-9.074 0c.795.917 1.69 2.125 2.083 3.573h4.908c.393-1.448 1.288-2.656 2.083-3.573ZM8.25 18c0-1.55-.906-2.92-1.92-4.091a7.5 7.5 0 1 1 11.341 0C16.656 15.079 15.75 16.45 15.75 18v.75c0 1.233-.454 2.196-1.194 2.842-.723.631-1.66.908-2.556.908-.896 0-1.832-.277-2.556-.908-.74-.646-1.194-1.61-1.194-2.842V18Zm1.5.75V18h4.5v.75c0 .838-.296 1.375-.68 1.712-.402.35-.966.538-1.57.538-.604 0-1.168-.188-1.57-.538-.384-.337-.68-.874-.68-1.712ZM9 8.25A2.25 2.25 0 0 1 11.25 6a.75.75 0 0 0 0-1.5A3.75 3.75 0 0 0 7.5 8.25a.75.75 0 0 0 1.5 0Z" class="Icon"/>
  </g>
</svg>
